!!!OTL: ES IST NICHTS LUSTGERS AUF DER WELT
!!!ARE: Europa, Mitteleuropa, Deutschland, Thueringen, Franken
!!!SCT: E1346
!!!YEM: Copyright 1995, estate of Helmut Schaffrath.
**kern
*ICvox
*Ivox
*M6/8
*k[f#]
*G:
{8d
=1
4g
8g
4b
8b
=2
4dd
8dd
4b}
{8g
=3
4a
8a
4dd
8dd
=4
4.b
4r}
{8d
=5
4g
8g
4b
8b
=6
4dd
8dd
4b}
{8g
=7
4a
8a
4dd
8dd
=8
4.b
4r}
{8a
=9
4a
8b
4a
8a
=10
4b
8dd
4b}
{8g
=11
4a
8g
4a
8dd
=12
4.b
4r}
{8d
=13
4g
8g
4b
8b
=14
4dd
8dd
4b}
{8g
=15
4a
8a
4dd
8f#
=16
4.g
4r}
==
!!!AGN: Staende -, Soldaten -, Kriegs - Lied
!!!ONB: ESAC (Essen Associative Code) Database: ERK3
!!!AMT: compound duple
!!!AIN: vox
!!!EED: Helmut Schaffrath
!!!EEV: 1.0
*-
